icons/exchange-dollar-line.svg

<svg xmlns="http://www.w3.org/2000/svg" width="24" height="24" fill="none"><g clip-path="url(#a)"><g><path fill="#121212" d="M19.375 15.103C20.0239 13.5613 20.1732 11.855 19.8021 10.224C19.4309 8.59305 18.558 7.11939 17.3059 6.01025C16.0539 4.90111 14.4857 4.21227 12.8218 4.04056C11.158 3.86886 9.48218 4.22293 8.03 5.053L7.038 3.316C8.55563 2.44862 10.2742 1.99437 12.0222 1.99858C13.7702 2.00279 15.4866 2.46531 17 3.34C21.49 5.932 23.21 11.482 21.117 16.11L22.459 16.884L18.294 19.098L18.129 14.384L19.375 15.103ZM4.625 8.897C3.97615 10.4387 3.82678 12.145 4.19792 13.776C4.56905 15.407 5.44201 16.8806 6.69407 17.9897C7.94613 19.0989 9.51432 19.7877 11.1782 19.9594C12.842 20.1311 14.5178 19.7771 15.97 18.947L16.962 20.684C15.4444 21.5514 13.7258 22.0056 11.9778 22.0014C10.2298 21.9972 8.51344 21.5347 7 20.66C2.51 18.068 0.790001 12.518 2.883 7.89L1.54 7.117L5.705 4.903L5.87 9.617L4.624 8.898L4.625 8.897ZM8.5 14H14C14.1326 14 14.2598 13.9473 14.3536 13.8536C14.4473 13.7598 14.5 13.6326 14.5 13.5C14.5 13.3674 14.4473 13.2402 14.3536 13.1464C14.2598 13.0527 14.1326 13 14 13H10C9.33696 13 8.70108 12.7366 8.23223 12.2678C7.76339 11.7989 7.5 11.163 7.5 10.5C7.5 9.83696 7.76339 9.20108 8.23223 8.73223C8.70108 8.26339 9.33696 8 10 8H11V7H13V8H15.5V10H10C9.86739 10 9.74022 10.0527 9.64645 10.1464C9.55268 10.2402 9.5 10.3674 9.5 10.5C9.5 10.6326 9.55268 10.7598 9.64645 10.8536C9.74022 10.9473 9.86739 11 10 11H14C14.663 11 15.2989 11.2634 15.7678 11.7322C16.2366 12.2011 16.5 12.837 16.5 13.5C16.5 14.163 16.2366 14.7989 15.7678 15.2678C15.2989 15.7366 14.663 16 14 16H13V17H11V16H8.5V14Z"/></g></g><defs><clipPath id="a"><rect width="24" height="24" fill="white"/></clipPath></defs></svg>

<svg width="24" height="24" fill="none" xmlns="http://www.w3.org/2000/svg"><g clip-path="url(#a)"><path d="M19.375 15.103A8.001 8.001 0 0 0 8.03 5.053l-.992-1.737A9.996 9.996 0 0 1 17 3.34c4.49 2.592 6.21 8.142 4.117 12.77l1.342.774-4.165 2.214-.165-4.714 1.246.719ZM4.625 8.897a8.001 8.001 0 0 0 11.345 10.05l.992 1.737A9.996 9.996 0 0 1 7 20.66C2.51 18.068.79 12.518 2.883 7.89L1.54 7.117l4.165-2.214.165 4.714-1.246-.719.001-.001ZM8.5 14H14a.5.5 0 0 0 0-1h-4a2.5 2.5 0 0 1 0-5h1V7h2v1h2.5v2H10a.5.5 0 0 0 0 1h4a2.5 2.5 0 0 1 0 5h-1v1h-2v-1H8.5v-2Z" /></g><defs><clipPath id="a"><path fill="#fff" d="M0 0h24v24H0z"/></clipPath></defs></svg>
